source/Icon/doc-success.svg

<svg width="32" height="32" viewBox="0 0 48 48" fill="none" xmlns="http://www.w3.org/2000/svg">
    <path d="M38 4H10C8.89543 4 8 4.89543 8 6V42C8 43.1046 8.89543 44 10 44H38C39.1046 44 40 43.1046 40 42V6C40 4.89543 39.1046 4 38 4Z" fill="#2F88FF" stroke="#000000" stroke-width="4" stroke-linecap="round" stroke-linejoin="round"/>
    <path d="M17 30L31 30" stroke="#FFF" stroke-width="4" stroke-linecap="round" stroke-linejoin="round"/>
    <path d="M17 36H24" stroke="#FFF" stroke-width="4" stroke-linecap="round" stroke-linejoin="round"/>
    <path d="M30 13L22 21L18 17" stroke="#FFF" stroke-width="4" stroke-linecap="round" stroke-linejoin="round"/>
</svg>

<svg width="48" height="48" viewBox="0 0 48 48" fill="none" xmlns="http://www.w3.org/2000/svg"><path stroke-linejoin="round" stroke-linecap="round" stroke-width="4" stroke="#333" d="M38 4H10a2 2 0 0 0-2 2v36a2 2 0 0 0 2 2h28a2 2 0 0 0 2-2V6a2 2 0 0 0-2-2ZM17 30h14M17 36h7"/><path stroke-linejoin="round" stroke-linecap="round" stroke-width="4" stroke="#333" d="m30 13-8 8-4-4"/></svg>
